.local/share/icons/Gruvbox-Plus-Dark/panel/16/grive-app-ind.svg

<svg xmlns="http://www.w3.org/2000/svg" width="16" height="16" version="1.1">
 <defs>
  <style id="current-color-scheme" type="text/css">
   .ColorScheme-Text { color:#ebdbb2; } .ColorScheme-Highlight { color:#458588; }
  </style>
 </defs>
 <path style="fill:currentColor" class="ColorScheme-Text" d="M 5.3339844 1 L 10.222656 10 L 16 10 L 10.666016 1 L 5.3339844 1 z M 4.8476562 1.9492188 L 0 10.625 L 2.6660156 15 L 7.4863281 6.8046875 L 4.8476562 1.9492188 z M 16 11 L 6 11.007812 L 3.5546875 15 L 13.333984 15 L 16 11 z"/>
</svg>

<svg width="16" height="16" version="1.1" xmlns="http://www.w3.org/2000/svg">
  <defs>
    <style id="current-color-scheme" type="text/css">.ColorScheme-Text { color:#ebdbb2; } .ColorScheme-Highlight { color:#458588; } .ColorScheme-NeutralText { color:#fe8019; } .ColorScheme-PositiveText { color:#689d6a; } .ColorScheme-NegativeText { color:#fb4934; }</style>
  </defs>
  <path class="ColorScheme-Text" d="m5.334 1 4.889 9h5.777l-5.334-9h-5.332zm-0.4863 0.9492-4.848 8.676 2.666 4.375 4.82-8.195-2.639-4.855zm11.15 9.051-10 0.007812-2.445 3.992h9.779l2.666-4z" fill="currentColor"/>
</svg>
